images_sukapura_svg/cmd/32/framelinecolor.svg

<svg viewBox="0 0 32 32" xmlns="http://www.w3.org/2000/svg" xmlns:xlink="http://www.w3.org/1999/xlink"><linearGradient id="a"><stop offset="0" stop-color="#0040dd"/><stop offset="1" stop-color="#0a84ff"/></linearGradient><linearGradient id="b" gradientTransform="translate(-25.830508 -3.59322)" gradientUnits="userSpaceOnUse" x1="14" x2="13.79661" xlink:href="#a" y1="22" y2="2.135593"/><linearGradient id="c" gradientUnits="userSpaceOnUse" x1="4.220518" x2="4.728189" xlink:href="#b" y1="16.583836" y2="7.918586"/><linearGradient id="d" gradientTransform="matrix(1.2992282 -.73035674 .75010978 1.265015 -5.67333 9.456668)" gradientUnits="userSpaceOnUse" x1="11.373043" x2="13.375103" xlink:href="#b" y1="9.467584" y2="6.949374"/><linearGradient id="e" gradientTransform="matrix(.75010978 0 0 .73035674 -1.502361 -1.646277)" gradientUnits="userSpaceOnUse" x1="18" x2="18" xlink:href="#a" y1="28" y2="4"/><g transform="matrix(1.3331382 0 0 1.3691939 .002855 .254072)"><path d="m11.307716 20.638247 9.438078-5.638247-5.708126-10.3752563-9.9336041 5.8220523z" fill="#fff" fill-rule="evenodd"/><g transform="translate(.75011 .730357)"><path d="m9 8h-5c-1 0-1 .217546-1 2.276478v5.723522c0 1 2 1 2 0v-6z" fill="url(#c)" fill-rule="evenodd"/><path d="m6.9588754 12.922616 9.2746616-5.366267 1.417329 2.39024-9.2746627 5.366266z" fill="url(#d)" fill-rule="evenodd"/><ellipse cx="4.314698" cy="15.815339" fill="#fff" rx="1.752345" ry="1.741017" stroke="#69696e" stroke-linecap="round" stroke-width=".740182" transform="matrix(.86821741 -.49618397 .50382625 .86380502 0 0)"/><path d="m5.0497008 9.8714483 4.8619055 8.5486307c.3734427.596522.9738297.825824 1.5525967.521306l7.056006-4.135499c.536713-.37095.785616-1.067657.442865-1.677829l-4.867459-8.5583889z" fill="none" stroke="#98989d" stroke-width=".740167"/><path d="m11.62456 9.6742529v-5.2263907c0-2.8972803 5.250768-2.6079462 5.250768.320694v3.5718288" fill="none" stroke="#69696e" stroke-linecap="round" stroke-width=".740167"/><path d="m1.498078.54479356c-.4155609 0-.75010978.3257391-.75010978.73035684v17.5285606c0 .404618.33454888.730357.75010978.730357v-.730357-17.5285606h18.002634.75011c0-.40461774-.334549-.73035684-.75011-.73035684z" fill="url(#e)"/></g></g></svg>

<?xml version="1.0" encoding="UTF-8" standalone="no"?>
<svg
   xmlns:dc="http://purl.org/dc/elements/1.1/"
   xmlns:cc="http://creativecommons.org/ns#"
   xmlns:rdf="http://www.w3.org/1999/02/22-rdf-syntax-ns#"
   xmlns:svg="http://www.w3.org/2000/svg"
   xmlns="http://www.w3.org/2000/svg"
   xmlns:xlink="http://www.w3.org/1999/xlink"
   xmlns:sodipodi="http://sodipodi.sourceforge.net/DTD/sodipodi-0.dtd"
   xmlns:inkscape="http://www.inkscape.org/namespaces/inkscape"
   viewBox="0 0 32 32"
   version="1.1"
   id="svg16"
   sodipodi:docname="framelinecolor.svg"
   inkscape:export-filename="/home/rizmut/Documents/Rizmut/Github/libreoffice-style-sukapura/images_sukapura/cmd/32/framelinecolor.png"
   inkscape:export-xdpi="96"
   inkscape:export-ydpi="96"
   inkscape:version="0.92.3 (2405546, 2018-03-11)">
  <metadata
     id="metadata22">
    <rdf:RDF>
      <cc:Work
         rdf:about="">
        <dc:format>image/svg+xml</dc:format>
        <dc:type
           rdf:resource="http://purl.org/dc/dcmitype/StillImage" />
        <dc:title />
      </cc:Work>
    </rdf:RDF>
  </metadata>
  <defs
     id="defs20">
    <linearGradient
       gradientTransform="translate(-25.830508,-3.5932203)"
       id="a-3"
       gradientUnits="userSpaceOnUse"
       x1="14"
       x2="13.79661"
       y1="22"
       y2="2.1355929">
      <stop
         offset="0"
         stop-color="#0040dd"
         id="stop2-6" />
      <stop
         offset="1"
         stop-color="#0a84ff"
         id="stop4-7" />
    </linearGradient>
    <linearGradient
       id="a"
       gradientUnits="userSpaceOnUse"
       x1="3.8516381"
       x2="14.387326"
       y1="8.3825073"
       y2="8.3825073"
       gradientTransform="rotate(-30,21.736973,45.495412)">
      <stop
         offset="0"
         stop-color="#fff"
         id="stop2" />
      <stop
         offset="1"
         stop-color="#f4f3f5"
         id="stop4" />
    </linearGradient>
    <linearGradient
       inkscape:collect="always"
       xlink:href="#a-3"
       id="linearGradient1569"
       x1="4.2205176"
       y1="16.583836"
       x2="4.7281885"
       y2="7.9185858"
       gradientUnits="userSpaceOnUse" />
    <linearGradient
       inkscape:collect="always"
       xlink:href="#a-3"
       id="linearGradient863"
       x1="11.373043"
       y1="9.4675837"
       x2="13.375103"
       y2="6.9493737"
       gradientUnits="userSpaceOnUse"
       gradientTransform="matrix(1.2992282,-0.73035674,0.75010978,1.265015,-5.6733303,9.4566679)" />
    <linearGradient
       gradientTransform="matrix(0.75010978,0,0,0.73035674,-1.5023611,-1.6462766)"
       inkscape:collect="always"
       xlink:href="#a-4"
       id="linearGradient848"
       x1="18"
       y1="28"
       x2="18"
       y2="4"
       gradientUnits="userSpaceOnUse" />
    <linearGradient
       gradientTransform="translate(-11,-1)"
       id="a-4"
       gradientUnits="userSpaceOnUse"
       x1="14"
       x2="13.79661"
       y1="22"
       y2="2.1355929">
      <stop
         offset="0"
         stop-color="#0040dd"
         id="stop1492" />
      <stop
         offset="1"
         stop-color="#0a84ff"
         id="stop1494" />
    </linearGradient>
  </defs>
  <sodipodi:namedview
     pagecolor="#ffffff"
     bordercolor="#666666"
     borderopacity="1"
     objecttolerance="10"
     gridtolerance="10"
     guidetolerance="10"
     inkscape:pageopacity="0"
     inkscape:pageshadow="2"
     inkscape:window-width="1366"
     inkscape:window-height="685"
     id="namedview18"
     showgrid="true"
     inkscape:snap-global="false"
     inkscape:zoom="7.375"
     inkscape:cx="18.865342"
     inkscape:cy="15.695669"
     inkscape:window-x="0"
     inkscape:window-y="0"
     inkscape:window-maximized="1"
     inkscape:current-layer="g14">
    <inkscape:grid
       type="xygrid"
       id="grid1555"
       spacingx="0.5"
       spacingy="0.5"
       empspacing="2" />
  </sodipodi:namedview>
  <g
     transform="matrix(1.3331382 0 0 1.3691939 .002855 .254072)"
     id="g14">
    <path
       d="m11.307716 20.638247 9.438078-5.638247-5.708126-10.3752563-9.9336041 5.8220523z"
       id="path2"
       fill-rule="evenodd"
       fill="#fff" />
    <g
       id="g1659"
       transform="translate(0.75010978,0.73035674)">
      <g
         id="g1650">
        <path
           d="M 9,8 H 4 C 3,8 3,8.217546 3,10.276478 V 16 c 0,1 2,1 2,0 v -6 z"
           id="path4"
           style="fill:url(#linearGradient1569);fill-opacity:1;fill-rule:evenodd"
           inkscape:connector-curvature="0" />
        <path
           sodipodi:nodetypes="ccccc"
           style="fill:url(#linearGradient863);fill-opacity:1;fill-rule:evenodd;stroke:none;stroke-width:1.48033476"
           id="path11"
           d="m 6.9588754,12.922616 9.2746616,-5.366267 1.417329,2.39024 -9.2746627,5.366266 z"
           inkscape:connector-curvature="0" />
        <ellipse
           style="fill:#ffffff;fill-opacity:1;stroke:#69696e;stroke-width:0.7401818;stroke-linecap:round;stroke-miterlimit:4;stroke-dasharray:none;stroke-opacity:1"
           id="ellipse6"
           transform="matrix(0.86821741,-0.49618397,0.50382625,0.86380502,0,0)"
           ry="1.741017"
           rx="1.752345"
           cy="15.815339"
           cx="4.3146982" />
        <path
           inkscape:connector-curvature="0"
           style="fill:none;stroke:#98989d;stroke-width:0.74016737;stroke-opacity:1;stroke-miterlimit:4;stroke-dasharray:none"
           id="path10"
           d="m 5.0497008,9.8714483 4.8619055,8.5486307 c 0.3734427,0.596522 0.9738297,0.825824 1.5525967,0.521306 l 7.056006,-4.135499 c 0.536713,-0.37095 0.785616,-1.067657 0.442865,-1.677829 L 14.095615,4.5696681 Z" />
        <path
           sodipodi:nodetypes="cssc"
           style="fill:none;stroke:#69696e;stroke-width:0.74016738;stroke-linecap:round;stroke-miterlimit:4;stroke-dasharray:none;stroke-opacity:1"
           inkscape:connector-curvature="0"
           id="path8"
           d="M 11.62456,9.6742529 V 4.4478622 c 0,-2.8972803 5.250768,-2.6079462 5.250768,0.320694 V 8.340385" />
      </g>
      <path
         inkscape:connector-curvature="0"
         d="m 1.498078,0.54479356 c -0.4155609,0 -0.75010978,0.3257391 -0.75010978,0.73035684 V 18.803711 c 0,0.404618 0.33454888,0.730357 0.75010978,0.730357 V 18.803711 1.2751504 h 18.002634 0.75011 c 0,-0.40461774 -0.334549,-0.73035684 -0.75011,-0.73035684 z"
         id="path2-7"
         style="fill:url(#linearGradient848);fill-opacity:1;stroke:none;stroke-width:0.74016738" />
    </g>
  </g>
</svg>
